X: 10362
M: 6/8
L: 1/8
K: A
E2F A2B | c2c- cBA | c2c cBA | BAB cAF |\
E>FA A>Bc | d2d def | ecA TB2A | TF3 A3 :|
|: d |\
(c/d/e).e ecA | (d/e/f)f fga | (c/d/e)e ecA | BGE TE2d |\
(c/d/e).e ecA | (d/e/f)f fga | ecA TB2A | TF3 A2 :|


